build/svg/cmd/32/rejectalltrackedchanges.svg

<?xml version="1.0" encoding="UTF-8" standalone="no"?>
<svg
   xmlns:dc="http://purl.org/dc/elements/1.1/"
   xmlns:cc="http://creativecommons.org/ns#"
   xmlns:rdf="http://www.w3.org/1999/02/22-rdf-syntax-ns#"
   xmlns:svg="http://www.w3.org/2000/svg"
   xmlns="http://www.w3.org/2000/svg"
   xmlns:sodipodi="http://sodipodi.sourceforge.net/DTD/sodipodi-0.dtd"
   xmlns:inkscape="http://www.inkscape.org/namespaces/inkscape"
   viewBox="0 0 32 32"
   version="1.1"
   id="svg8"
   sodipodi:docname="rejectalltrackedchanges.svg"
   inkscape:export-filename="/home/jupiter007/Libreoffice yaru theme fullcolor/build/cmd/32/rejectalltrackedchanges.png"
   inkscape:export-xdpi="95"
   inkscape:export-ydpi="95"
   inkscape:version="0.92.5 (2060ec1f9f, 2020-04-08)">
  <metadata
     id="metadata14">
    <rdf:RDF>
      <cc:Work
         rdf:about="">
        <dc:format>image/svg+xml</dc:format>
        <dc:type
           rdf:resource="http://purl.org/dc/dcmitype/StillImage" />
      </cc:Work>
    </rdf:RDF>
  </metadata>
  <defs
     id="defs12" />
  <sodipodi:namedview
     pagecolor="#ffffff"
     bordercolor="#666666"
     borderopacity="1"
     objecttolerance="10"
     gridtolerance="10"
     guidetolerance="10"
     inkscape:pageopacity="0"
     inkscape:pageshadow="2"
     inkscape:window-width="1920"
     inkscape:window-height="1011"
     id="namedview10"
     showgrid="true"
     inkscape:zoom="20.85965"
     inkscape:cx="10.524831"
     inkscape:cy="13.155524"
     inkscape:window-x="0"
     inkscape:window-y="32"
     inkscape:window-maximized="1"
     inkscape:current-layer="svg8">
    <inkscape:grid
       type="xygrid"
       id="grid865" />
  </sodipodi:namedview>
  <path
     sodipodi:nodetypes="cccscsccccccccscscccccc"
     inkscape:connector-curvature="0"
     id="path4237-1"
     d="m 6.994115,2.9994166 c -1.2582,0.0145 -2.178891,-0.030604 -2.93164,0.3847656 -0.37637,0.2076602 -0.673231,0.5593872 -0.837891,0.9980472 -0.16467,0.43867 -0.224609,0.959587 -0.224609,1.617187 V 7.4876984 25 c 0,0.65761 0.0599,1.178577 0.224609,1.617188 0.16468,0.438611 0.461531,0.788524 0.837891,0.996093 0.752719,0.41513 1.67354,0.371649 2.93164,0.386719 h 0.002 18.00586 0.0039 c 1.25819,-0.0145 2.178891,0.0306 2.931641,-0.384766 0.37637,-0.20766 0.673221,-0.559386 0.837891,-0.998046 C 28.939946,26.178517 29.000025,25.65761 29.000025,25 V 7.4662144 5.9994164 c 0,-0.6576 -0.0599,-1.178577 -0.224609,-1.617187 -0.16468,-0.4386 -0.461531,-0.788534 -0.837891,-0.996094 -0.75277,-0.41513 -1.673601,-0.3716388 -2.931691,-0.3867188 h -0.002 -18.00586 z"
     style="font-style:normal;font-variant:normal;font-weight:normal;font-stretch:normal;font-size:15px;line-height:125%;font-family:Ubuntu;-inkscape-font-specification:Ubuntu;text-align:center;letter-spacing:0px;word-spacing:0px;writing-mode:lr-tb;text-anchor:middle;display:inline;opacity:0.6;fill:#000000;fill-opacity:1;stroke:none;stroke-width:0.99980211" />
  <path
     inkscape:connector-curvature="0"
     id="path1993"
     d="m 11.983344,4.0266014 c -1.556581,0.0108 -5.109991,-0.01175 -6.659942,0.03877 -0.461229,0.04267 -1.016188,0.206419 -1.155339,0.709967 -0.218994,0.635346 -0.108414,1.333787 -0.145796,1.981924 -0.0078,2.297085 -0.02297,16.5964286 0.02152,18.8857806 0.0391,0.461929 0.20255,1.012666 0.698755,1.163666 0.632456,0.225082 1.284144,0.12274 1.935974,0.154298 1.424235,0.0068 12.850564,0.01102 14.276421,0.01131 1.704531,3.5e-4 3.408388,-0.005 5.10719,-0.01851 0.511911,-0.01201 1.183699,0.01993 1.584745,-0.405191 0.421097,-0.539783 0.287073,-1.268021 0.322745,-1.903787 0.01187,-2.444323 0.02769,-16.9110946 -0.0219,-19.3567946 -0.04928,-0.402041 -0.169992,-0.862952 -0.575139,-1.044476 -0.668169,-0.294097 -1.426205,-0.168018 -2.125921,-0.205572 -1.754407,-0.0118 -11.508874,-0.01248 -13.263313,-0.01139 z"
     style="opacity:1;vector-effect:none;fill:#ffffff;fill-opacity:1;stroke:none;stroke-width:1;stroke-linecap:round;stroke-linejoin:bevel;stroke-miterlimit:4;stroke-dasharray:none;stroke-dashoffset:0;stroke-opacity:1"
     sodipodi:nodetypes="cccccccsccccccc" />
  <path
     style="fill:#232629;stroke-width:1.37436855"
     d="m 8.999999,9.999999 v 1 H 26 v -1 z"
     id="path855"
     inkscape:connector-curvature="0" />
  <path
     inkscape:connector-curvature="0"
     style="fill:#232629"
     d="m 5.999999,13 v 1 H 14 v -1 z"
     id="path853" />
  <path
     style="fill:#232629"
     d="m 17,17 v 1 h 9 v -1 z"
     id="path2"
     inkscape:connector-curvature="0" />
  <path
     style="fill:#c7162b"
     d="m 26,6.9999994 v 1 h -7 v -1 z"
     id="path849"
     inkscape:connector-curvature="0" />
  <path
     inkscape:connector-curvature="0"
     style="fill:#c7162b"
     d="m 5.999999,9.999999 v 1 h 2 v -1 z"
     id="path847" />
  <path
     style="fill:#c7162b;stroke-width:1.91485417"
     d="m 15,13 v 1 h 11 v -1 z"
     id="path845"
     inkscape:connector-curvature="0" />
  <path
     style="fill:#c7162b;stroke-width:2.23606801"
     d="m 5.999999,17 v 1 H 16 v -1 z"
     id="path4"
     inkscape:connector-curvature="0" />
  <path
     id="path857"
     d="m 18,6.9999994 v 1 H 5.999999 v -1 z"
     style="fill:#232629;stroke-width:1.15470052"
     inkscape:connector-curvature="0" />
  <path
     inkscape:connector-curvature="0"
     id="path867"
     d="m 8.999999,23 v 1 H 26 v -1 z"
     style="fill:#232629;stroke-width:1.37436855" />
  <path
     inkscape:connector-curvature="0"
     id="path869"
     d="m 26,20 v 1 h -7 v -1 z"
     style="fill:#c7162b" />
  <path
     id="path871"
     d="m 5.999999,23 v 1 h 2 v -1 z"
     style="fill:#c7162b"
     inkscape:connector-curvature="0" />
  <path
     inkscape:connector-curvature="0"
     style="fill:#232629;stroke-width:1.15470052"
     d="m 18,20 v 1 H 5.999999 v -1 z"
     id="path873" />
  <ellipse
     style="opacity:1;fill:#c7162b;fill-opacity:1;fill-rule:nonzero;stroke:none;stroke-width:2.25000048;stroke-linecap:round;stroke-linejoin:round;stroke-miterlimit:4;stroke-dasharray:none;stroke-opacity:0.98705498"
     id="path904"
     cx="26.5"
     cy="26.5"
     rx="4.4999995"
     ry="4.500001" />
  <path
     style="opacity:1;fill:#ffffff;fill-opacity:1;stroke:none;stroke-width:2;stroke-linejoin:round;stroke-miterlimit:4;stroke-dasharray:none;stroke-opacity:1"
     d="M 24.37868,25.085786 25.792893,26.5 24.37868,27.914214 25.085786,28.62132 26.5,27.207107 27.914214,28.62132 28.62132,27.914214 27.207107,26.5 28.62132,25.085786 27.914214,24.37868 26.5,25.792893 25.085786,24.37868 Z"
     id="rect899"
     inkscape:connector-curvature="0" />
  <ellipse
     ry="4.500001"
     rx="4.4999995"
     cy="26.5"
     cx="19.5"
     id="ellipse914"
     style="opacity:1;fill:#c7162b;fill-opacity:1;fill-rule:nonzero;stroke:none;stroke-width:2.25000048;stroke-linecap:round;stroke-linejoin:round;stroke-miterlimit:4;stroke-dasharray:none;stroke-opacity:0.98705498" />
  <path
     inkscape:connector-curvature="0"
     id="path916"
     d="M 17.37868,25.085786 18.792893,26.5 17.37868,27.914214 18.085786,28.62132 19.5,27.207107 20.914214,28.62132 21.62132,27.914214 20.207107,26.5 21.62132,25.085786 20.914214,24.37868 19.5,25.792893 18.085786,24.37868 Z"
     style="opacity:1;fill:#ffffff;fill-opacity:1;stroke:none;stroke-width:2;stroke-linejoin:round;stroke-miterlimit:4;stroke-dasharray:none;stroke-opacity:1" />
</svg>

<svg xmlns="http://www.w3.org/2000/svg" viewBox="0 0 32 32"><path d="M6.994 3c-1.258.014-2.179-.031-2.932.384a1.88 1.88 0 00-.837.998C3.06 4.821 3 5.342 3 6V25c0 .658.06 1.179.225 1.617.164.439.461.789.837.996.753.415 1.674.372 2.932.387h18.012c1.258-.015 2.179.03 2.932-.385a1.88 1.88 0 00.837-.998c.165-.438.225-.96.225-1.617V5.999c0-.657-.06-1.178-.225-1.617a1.875 1.875 0 00-.837-.996c-.753-.415-1.674-.372-2.932-.387H6.998z" style="line-height:125%;-inkscape-font-specification:Ubuntu;text-align:center" font-weight="400" font-size="15" font-family="Ubuntu" letter-spacing="0" word-spacing="0" text-anchor="middle" opacity=".6"/><path d="M11.983 4.027c-1.556.01-5.11-.012-6.66.038-.46.043-1.016.207-1.155.71-.219.636-.108 1.334-.146 1.982-.008 2.297-.023 16.597.022 18.886.039.462.202 1.013.699 1.164.632.225 1.284.122 1.936.154 1.424.007 12.85.011 14.276.011 1.704 0 3.408-.005 5.107-.018.512-.012 1.184.02 1.585-.405.421-.54.287-1.268.323-1.904.011-2.444.027-16.911-.022-19.357-.05-.402-.17-.863-.575-1.044-.669-.295-1.427-.168-2.126-.206-1.755-.012-11.51-.012-13.264-.011z" fill="#fff"/><path d="M9 10v1h17v-1zM6 13v1h8v-1zM17 17v1h9v-1z" fill="#232629"/><path d="M26 7v1h-7V7zM6 10v1h2v-1zM15 13v1h11v-1zM6 17v1h10v-1z" fill="#c7162b"/><path d="M18 7v1H6V7zM9 23v1h17v-1z" fill="#232629"/><path d="M26 20v1h-7v-1zM6 23v1h2v-1z" fill="#c7162b"/><path d="M18 20v1H6v-1z" fill="#232629"/><circle cx="26.5" cy="26.5" fill="#c7162b" r="4.5"/><path d="M24.379 25.086l1.414 1.414-1.414 1.414.707.707 1.414-1.414 1.414 1.414.707-.707-1.414-1.414 1.414-1.414-.707-.707-1.414 1.414-1.414-1.414z" fill="#fff"/><circle cy="26.5" cx="19.5" fill="#c7162b" r="4.5"/><path d="M17.379 25.086l1.414 1.414-1.414 1.414.707.707 1.414-1.414 1.414 1.414.707-.707-1.414-1.414 1.414-1.414-.707-.707-1.414 1.414-1.414-1.414z" fill="#fff"/></svg>
